contributed-vectors/sagon_circle.svg

<?xml version="1.0" encoding="UTF-8" standalone="no"?>
<svg
   xmlns:dc="http://purl.org/dc/elements/1.1/"
   xmlns:cc="http://creativecommons.org/ns#"
   xmlns:rdf="http://www.w3.org/1999/02/22-rdf-syntax-ns#"
   xmlns:svg="http://www.w3.org/2000/svg"
   xmlns="http://www.w3.org/2000/svg"
   xmlns:sodipodi="http://sodipodi.sourceforge.net/DTD/sodipodi-0.dtd"
   xmlns:inkscape="http://www.inkscape.org/namespaces/inkscape"
   viewBox="0 0 192 192"
   version="1.1"
   id="svg16"
   sodipodi:docname="sagon_circle.svg"
   inkscape:version="0.92.4 (5da689c313, 2019-01-14)">
  <metadata
     id="metadata20">
    <rdf:RDF>
      <cc:Work
         rdf:about="">
        <dc:format>image/svg+xml</dc:format>
        <dc:type
           rdf:resource="http://purl.org/dc/dcmitype/StillImage" />
        <dc:title></dc:title>
      </cc:Work>
    </rdf:RDF>
  </metadata>
  <sodipodi:namedview
     pagecolor="#ffffff"
     bordercolor="#666666"
     borderopacity="1"
     objecttolerance="10"
     gridtolerance="10"
     guidetolerance="10"
     inkscape:pageopacity="0"
     inkscape:pageshadow="2"
     inkscape:window-width="1920"
     inkscape:window-height="1017"
     id="namedview18"
     showgrid="true"
     inkscape:zoom="2.4583333"
     inkscape:cx="66.882029"
     inkscape:cy="84.552354"
     inkscape:window-x="-8"
     inkscape:window-y="-8"
     inkscape:window-maximized="1"
     inkscape:current-layer="svg16">
    <inkscape:grid
       type="xygrid"
       id="grid827"
       spacingx="4"
       spacingy="4" />
  </sodipodi:namedview>
  <defs
     id="defs4">
    <style
       id="style2">.a{fill:none;stroke:#b1b5bd;stroke-linecap:round;stroke-linejoin:round;isolation:isolate;opacity:0.63;}</style>
    <style
       id="style2-5">.a{fill:none;stroke:#b1b5bd;stroke-linecap:round;stroke-linejoin:round;isolation:isolate;opacity:0.63;}</style>
  </defs>
  <circle
     class="a"
     cx="96"
     cy="96"
     r="88"
     id="circle8"
     style="stroke:none;fill:#ba6561;opacity:1" />
  <path
     style="fill:none;stroke:#d4b79a;stroke-width:24;stroke-linecap:round;stroke-linejoin:round;stroke-miterlimit:4;stroke-dasharray:none;stroke-opacity:1"
     d="M 52,100 V 68 l 20,20 z"
     id="path873"
     inkscape:connector-curvature="0"
     sodipodi:nodetypes="cccc" />
  <path
     style="fill:none;stroke:#d4b79a;stroke-width:24;stroke-linecap:round;stroke-linejoin:round;stroke-miterlimit:4;stroke-dasharray:none;stroke-opacity:1"
     d="M 140,99.999996 V 68 l -20,20 z"
     id="path873-3"
     inkscape:connector-curvature="0"
     sodipodi:nodetypes="cccc" />
  <path
     style="opacity:1;vector-effect:none;fill:#d4b79a;fill-opacity:1;fill-rule:evenodd;stroke:none;stroke-width:24;stroke-linecap:round;stroke-linejoin:round;stroke-miterlimit:4;stroke-dasharray:none;paint-order:stroke fill markers"
     d="M 96 68 C 64.976 68 40 92.976 40 124 L 40 163.83203 A 88 88 0 0 0 96 184 A 88 88 0 0 0 152 163.79297 L 152 124 C 152 92.976 127.024 68 96 68 z "
     id="rect875" />
  <rect
     style="opacity:1;vector-effect:none;fill:#56595b;fill-opacity:1;fill-rule:evenodd;stroke:none;paint-order:stroke fill markers"
     id="rect829"
     width="60"
     height="60"
     x="32"
     y="80"
     ry="30" />
  <rect
     style="opacity:1;vector-effect:none;fill:#56595b;fill-opacity:1;fill-rule:evenodd;stroke:none;paint-order:stroke fill markers"
     id="rect829-9"
     width="60"
     height="60"
     x="100"
     y="80"
     ry="30" />
  <path
     style="fill:none;stroke:#56595b;stroke-width:4;stroke-linecap:round;stroke-linejoin:round;stroke-miterlimit:4;stroke-dasharray:none;stroke-opacity:1"
     d="M 80,93.986543 C 80,93.986543 89.569237,84 96,84 c 6.43076,0 16,9.986543 16,9.986543"
     id="path846"
     inkscape:connector-curvature="0"
     sodipodi:nodetypes="czc" />
  <rect
     style="opacity:1;vector-effect:none;fill:#56595b;fill-opacity:1;fill-rule:evenodd;stroke:none;stroke-width:4;stroke-linecap:round;stroke-linejoin:round;stroke-miterlimit:4;stroke-dasharray:none;paint-order:stroke fill markers"
     id="rect853"
     width="12"
     height="4"
     x="89.86441"
     y="128"
     ry="2" />
  <path
     style="fill:#56595b;stroke:none;stroke-width:1px;stroke-linecap:butt;stroke-linejoin:miter;stroke-opacity:1"
     d="M 92 132 C 92 132 94.677734 132 94.677734 136 L 94.677734 144 C 94.677734 144 90.962896 151.80851 84 152 C 77.037104 152.19149 72 144 72 144 C 72 144 76 154.14949 84 154.37305 C 92 154.59661 96 145.11914 96 145.11914 C 96 145.11914 100 154.59661 108 154.37305 C 116 154.14949 120 144 120 144 C 120 144 114.9629 152.19149 108 152 C 101.0371 151.80851 97.322266 144 97.322266 144 L 97.322266 136 C 97.322266 132 100 132 100 132 L 96 132 L 92 132 z "
     id="path855" />
</svg>

<svg xmlns="http://www.w3.org/2000/svg" viewBox="0 0 192 192"><circle cx="96" cy="96" r="88" style="stroke:none;fill:#ba6561;opacity:1;stroke-linecap:round;stroke-linejoin:round;isolation:isolate"/><path d="M52 100V68l20 20zM140 100V68l-20 20z" style="fill:none;stroke:#d4b79a;stroke-width:24;stroke-linecap:round;stroke-linejoin:round;stroke-miterlimit:4;stroke-dasharray:none;stroke-opacity:1"/><path d="M96 68c-31.024 0-56 24.976-56 56v39.832A88 88 0 0 0 96 184a88 88 0 0 0 56-20.207V124c0-31.024-24.976-56-56-56z" style="opacity:1;vector-effect:none;fill:#d4b79a;fill-opacity:1;fill-rule:evenodd;stroke:none;stroke-width:24;stroke-linecap:round;stroke-linejoin:round;stroke-miterlimit:4;stroke-dasharray:none;paint-order:stroke fill markers"/><rect width="60" height="60" x="32" y="80" ry="30" style="opacity:1;vector-effect:none;fill:#56595b;fill-opacity:1;fill-rule:evenodd;stroke:none;paint-order:stroke fill markers"/><rect width="60" height="60" x="100" y="80" ry="30" style="opacity:1;vector-effect:none;fill:#56595b;fill-opacity:1;fill-rule:evenodd;stroke:none;paint-order:stroke fill markers"/><path d="M80 93.987S89.57 84 96 84s16 9.987 16 9.987" style="fill:none;stroke:#56595b;stroke-width:4;stroke-linecap:round;stroke-linejoin:round;stroke-miterlimit:4;stroke-dasharray:none;stroke-opacity:1"/><rect width="12" height="4" x="89.864" y="128" ry="2" style="opacity:1;vector-effect:none;fill:#56595b;fill-opacity:1;fill-rule:evenodd;stroke:none;stroke-width:4;stroke-linecap:round;stroke-linejoin:round;stroke-miterlimit:4;stroke-dasharray:none;paint-order:stroke fill markers"/><path d="M92 132s2.678 0 2.678 4v8s-3.715 7.809-10.678 8c-6.963.191-12-8-12-8s4 10.15 12 10.373c8 .224 12-9.254 12-9.254s4 9.478 12 9.254c8-.224 12-10.373 12-10.373s-5.037 8.191-12 8c-6.963-.191-10.678-8-10.678-8v-8c0-4 2.678-4 2.678-4h-8z" style="fill:#56595b;stroke:none;stroke-width:1px;stroke-linecap:butt;stroke-linejoin:miter;stroke-opacity:1"/></svg>
